!!!OTL: "Die Sittarder Schlacht" UND WOLLT IHR HOEREN EIN NEUES LIED
!!!ARE: Europa, Mitteleuropa, Deutschland
!!!SCT: Z1050A
!!!YEM: Copyright 1995, estate of Helmut Schaffrath.
**kern
*ICvox
*Ivox
*M6/8
*k[]
*C:
{8G
=1
4c
8c
8d
8d
8e
=2
8f
8e
8d
4e}
{8G
=3
4c
8c
8d
8d
8e
=4
8f
8e
8d
4e}
{8e
=5
4e
8g
4f
8e
=6
4.e
4d}
{8e
=7
8g
8f
16e
16d
4c
8d
=8
4d
8e
4d}
{8d
=9
8d
8e
8A
8c
8B
8G#
=10
4.B
4A}
==
!!!AGN: Romanze, Ballade
!! Modulation
!!!ONB: ESAC (Essen Associative Code) Database: ZUCCAL
!!!AMT: compound duple
!!!AIN: vox
!!!EED: Helmut Schaffrath
!!!EEV: 1.0
*-
